X: 299
T: Xiu huadeng
L: 1/8
M: 4/4
K: Eb
z e d c G e d F [I:setbarnb 1]| 
c G B> c B/ c/ B/ F/ G/ c/ G | 
z A G G/ G< F G/ B B/ c/ | 
B B/ D< F G< B F/E2 | 
B CE2zG2B | 
c> e G> F G CE2 | 
e> d c c/ e/ G G B c/ e/ | 
d c A G/ F< E F/ G/ A/ G | 
z e d f c G B c/ e/ | 
d c A G B> FE2 |]

@@@ Tune index: 9173
